assets/Spiral notepad/Flat/spiral_notepad_flat.svg

<svg width="32" height="32" viewBox="0 0 32 32" fill="none" xmlns="http://www.w3.org/2000/svg">
<path d="M7.18681 3C5.95783 3 5 4.01273 5 5.21401V28.6848C5 29.2649 5.21521 29.8565 5.66704 30.3042C6.12651 30.7595 6.76273 31 7.48352 31H17.7929C17.8546 31 17.9159 30.9962 17.9766 30.9887C18.0503 30.9962 18.1248 31 18.2 31H23.8C25.015 31 26 30.015 26 28.8V5.2C26 3.98497 25.015 3 23.8 3H22.9251C22.9063 3 22.8876 3.00024 22.8689 3.00071C22.8504 3.00024 22.8318 3 22.8132 3H7.18681Z" fill="#B4ACBC"/>
<path d="M21.7646 4.89461C21.9033 4.36743 22.3799 4 22.9251 4H23.8C24.4627 4 25 4.53726 25 5.2V28.8C25 29.4627 24.4627 30 23.8 30H18.2C17.5373 30 17 29.4627 17 28.8V23.1553C17 23.0522 17.0133 22.9495 17.0395 22.8499L21.7646 4.89461Z" fill="#CDC4D6"/>
<path d="M6 5.21401C6 4.54353 6.53135 4 7.18681 4H22.8132C23.4686 4 24 4.54353 24 5.21401V24L18.1464 29.8536C18.0527 29.9473 17.9255 30 17.7929 30H7.48352C6.49451 30 6 29.3553 6 28.6848V5.21401Z" fill="#F3EEF8"/>
<path d="M18 30L24 24H19.2C18.5373 24 18 24.5373 18 25.2L18 30Z" fill="#B4ACBC"/>
<path d="M10.5374 2.6007C10.085 1.99388 9.36091 1.60134 8.61178 1.57996C7.23037 1.57996 6.19678 2.73657 6.19678 4.08139C6.19678 5.4262 7.23428 6.4042 8.17959 6.52139C8.96672 6.61897 9.02893 5.56642 8.38271 5.48623C7.84756 5.41983 7.25771 4.8972 7.25771 4.09639C7.25771 3.29558 7.83029 2.64639 8.61178 2.64639C9.39326 2.64639 9.95256 3.42373 9.95256 3.99873H10.0731C10.0722 4.0262 10.0718 4.05375 10.0718 4.08139C10.0718 5.4262 11.1093 6.4042 12.0546 6.52139C12.8417 6.61897 12.9039 5.56642 12.2577 5.48623C11.7226 5.41983 11.1327 4.8972 11.1327 4.09639C11.1327 3.29558 11.7053 2.64639 12.4868 2.64639C13.2683 2.64639 13.8276 3.42373 13.8276 3.99873H13.995C13.9941 4.0262 13.9937 4.05375 13.9937 4.08139C13.9937 5.4262 15.0312 6.4042 15.9765 6.52139C16.7636 6.61897 16.8258 5.56642 16.1796 5.48623C15.6444 5.41983 15.0546 4.8972 15.0546 4.09639C15.0546 3.29558 15.6272 2.64639 16.4087 2.64639C17.1901 2.64639 17.7494 3.42373 17.7494 3.99873H17.9012C17.9003 4.0262 17.8999 4.05375 17.8999 4.08139C17.8999 5.4262 18.9374 6.4042 19.8827 6.52139C20.6698 6.61897 20.7321 5.56642 20.0858 5.48623C19.5507 5.41983 18.9608 4.8972 18.9608 4.09639C18.9608 3.29558 19.5334 2.64639 20.3149 2.64639C21.0964 2.64639 21.6557 3.42373 21.6557 3.99873H22.7108C22.7108 2.65392 21.5468 1.61511 20.3149 1.57996C19.4849 1.57996 18.7805 1.99749 18.3504 2.62251C17.8991 2.0033 17.1667 1.60159 16.4087 1.57996C15.5738 1.57996 14.8659 2.00244 14.4365 2.6336C13.986 2.0081 13.2494 1.60172 12.4868 1.57996C11.6665 1.57996 10.9688 1.9878 10.5374 2.6007Z" fill="#BEBEBE"/>
<path d="M8.5 10C8.22386 10 8 10.2239 8 10.5C8 10.7761 8.22386 11 8.5 11H21.5C21.7761 11 22 10.7761 22 10.5C22 10.2239 21.7761 10 21.5 10H8.5Z" fill="#998EA4"/>
<path d="M8 13.5C8 13.2239 8.22386 13 8.5 13H21.5C21.7761 13 22 13.2239 22 13.5C22 13.7761 21.7761 14 21.5 14H8.5C8.22386 14 8 13.7761 8 13.5Z" fill="#998EA4"/>
<path d="M8.5 16C8.22386 16 8 16.2239 8 16.5C8 16.7761 8.22386 17 8.5 17H21.5C21.7761 17 22 16.7761 22 16.5C22 16.2239 21.7761 16 21.5 16H8.5Z" fill="#998EA4"/>
<path d="M8.5 19C8.22386 19 8 19.2239 8 19.5C8 19.7761 8.22386 20 8.5 20H15.5C15.7761 20 16 19.7761 16 19.5C16 19.2239 15.7761 19 15.5 19H8.5Z" fill="#998EA4"/>
</svg>

<svg xmlns="http://www.w3.org/2000/svg" width="32" height="32" fill="none"><path fill="#B4ACBC" d="M7.187 3C5.957 3 5 4.013 5 5.214v23.47c0 .58.215 1.172.667 1.62.46.456 1.096.696 1.817.696h10.309c.062 0 .123-.004.184-.011.073.007.148.011.223.011h5.6a2.2 2.2 0 0 0 2.2-2.2V5.2A2.2 2.2 0 0 0 23.8 3H7.187Z"/><path fill="#CDC4D6" d="M21.765 4.895A1.2 1.2 0 0 1 22.925 4h.875A1.2 1.2 0 0 1 25 5.2v23.6a1.2 1.2 0 0 1-1.2 1.2h-5.6a1.2 1.2 0 0 1-1.2-1.2v-5.645a1.2 1.2 0 0 1 .04-.305l4.725-17.955Z"/><path fill="#F3EEF8" d="M6 5.214C6 4.544 6.531 4 7.187 4h15.626C23.47 4 24 4.544 24 5.214V24l-5.854 5.854a.5.5 0 0 1-.353.146H7.483C6.496 30 6 29.355 6 28.685V5.214Z"/><path fill="#B4ACBC" d="m18 30 6-6h-4.8a1.2 1.2 0 0 0-1.2 1.2V30Z"/><path fill="#BEBEBE" d="M10.537 2.6c-.452-.606-1.176-.999-1.925-1.02-1.382 0-2.415 1.157-2.415 2.501 0 1.345 1.037 2.323 1.983 2.44.787.098.849-.955.203-1.035-.535-.066-1.125-.589-1.125-1.39 0-.8.572-1.45 1.354-1.45.781 0 1.34.778 1.34 1.353h.121l-.001.082c0 1.345 1.037 2.323 1.983 2.44.787.098.849-.955.203-1.035-.535-.066-1.125-.589-1.125-1.39 0-.8.572-1.45 1.354-1.45.781 0 1.34.778 1.34 1.353h.168l-.001.082c0 1.345 1.037 2.323 1.982 2.44.788.098.85-.955.204-1.035-.536-.066-1.125-.589-1.125-1.39 0-.8.572-1.45 1.354-1.45.781 0 1.34.778 1.34 1.353h.152l-.001.082c0 1.345 1.037 2.323 1.983 2.44.787.098.85-.955.203-1.035-.535-.066-1.125-.589-1.125-1.39 0-.8.572-1.45 1.354-1.45.781 0 1.34.778 1.34 1.353h1.056c0-1.345-1.164-2.384-2.396-2.419-.83 0-1.535.417-1.965 1.043-.45-.62-1.183-1.021-1.941-1.043-.835 0-1.543.422-1.972 1.054-.451-.626-1.188-1.032-1.95-1.054-.82 0-1.518.408-1.95 1.02Z"/><path fill="#998EA4" d="M8.5 10a.5.5 0 0 0 0 1h13a.5.5 0 0 0 0-1h-13ZM8 13.5a.5.5 0 0 1 .5-.5h13a.5.5 0 0 1 0 1h-13a.5.5 0 0 1-.5-.5ZM8.5 16a.5.5 0 0 0 0 1h13a.5.5 0 0 0 0-1h-13ZM8.5 19a.5.5 0 0 0 0 1h7a.5.5 0 0 0 0-1h-7Z"/></svg>
